X: 1
T: Duncan Gray
B: CDS Graded No.18
R: March
M: C
L: 1/4
K: A
[|\
"A"EA GA | "E7"Bc G2 | "A"A2 "E7"B>d | "A"cA A2 |\
"A"EA GA | "E7"Bc G2 | "A"A2 "E7"B>d | "A"cA A2 |]
[|\
"A"ce  ed/c/ | "Bm"dd dB/c/ | d>c "B7"BA | "E7"GF E2 |\
"A"ec "E7"dB | "A"cA "E7"B2 | "A"A2 "E7"B>d | "A"cA A2 |]
